X: 112
T:Rose
M:3/4
L:1/4
C:Jean-Claude Blanc
R:Valse
N:Doesn't sound right at all but can't find source -
N: any assistance / correction most welcome!
Z:Steve Mansfield
K:G
d>cB | d>cB | e3 | d>cB | d>cB | d>cB |
cBA |1 B3 :|2 G3 |: G/A/ B/G/ A/B/ | A3 |
A/B/ c/A/ B/c/ | B3 | de>f | gfe | BcA |1 B3 :|2 G3 ||
<end>
<start>
